X:193
T: WENN DIE SONNE FRUEH AUFGEHT
N: F0338
O: Europa, Mitteleuropa, Deutschland
R: Jugend - Lied, Tageslauf, Tier
M: 4/4
L: 1/8
K: E
GA | B2B2c2A2 | F6
GF | E2E2E2F2 | G4z2
GA | B2B2c2d2 | e4z2
BB | B2BBB2BB | B2z4

@@@ Tune index: 5624
